X:2476
T:Cancioneiro de Casto Sampedro: N\'umero 312
T:Muiñeira de Poio
O:Galicia (Spain)
B:Cancioneiro de Casto Sampedro
Z:Transcrito por Jos\'e J. Presedo
Z:Covertido de Midi a abc por Antonio-Nil
N:http://www.arrakis.es/~jpresedo/
M: 4/4
L: 1/8
Q:1/4=190
K:C % 0 sharps
z4 CD EF|EC EG F2 EG|FE DE FA2G|GE C2 CD EF|
EC EG F2 EA|B/2-[c/2-B/2]c/2A/2- [A/2-A/2]A/2G EG FD|C4 CD EF|EC EG F2 EG|
FE DE FA2G|GE C2 CD EF|EC EG F2 EA|B/2-[c/2-B/2]c/2A/2- [A/2-A/2]A/2G EG FD|
C4 EG G/2[A/2G/2-]G|FF/2[G/2F/2-] FE E/2[F/2E/2-]E D2|FA A/2[B/2A/2-]A GG/2[A/2G/2-] GF|F/2[G/2F/2-]F E2 EG G/2[A/2G/2-]G|
FF/2[G/2F/2-] FE E/2[F/2E/2-]E DA|B/2-[c/2-B/2]c/2A/2- [A/2-A/2]A/2G EG FD|C4 EG G/2[A/2G/2-]G|FF/2[G/2F/2-] FE E/2[F/2E/2-]E D2|
FA A/2[B/2A/2-]A GG/2[A/2G/2-] GF|F/2[G/2F/2-]F E2 EG G/2[A/2G/2-]G|FF/2[G/2F/2-] FE E/2[F/2E/2-]E DA|B/2-[c/2-B/2]c/2A/2- [A/2-A/2]A/2G EG FD|
C4 CD EF|EC EG F2 EG|FE DE FA2G|GE C2 CD EF|
EC EG F2 EA|B/2-[c/2-B/2]c/2A/2- [A/2-A/2]A/2G EG FD|C4 CD EF|EC EG F2 EG|
FE DE FA2G|GE C2 CD EF|EC EG F2 EA|B/2-[c/2-B/2]c/2A/2- [A/2-A/2]A/2G EG FD|
C4 EG G/2[A/2G/2-]G|FF/2[G/2F/2-] FE E/2[F/2E/2-]E D2|FA A/2[B/2A/2-]A GG/2[A/2G/2-] GF|F/2[G/2F/2-]F E2 EG G/2[A/2G/2-]G|
FF/2[G/2F/2-] FE E/2[F/2E/2-]E DA|B/2-[c/2-B/2]c/2A/2- [A/2-A/2]A/2G EG FD|C4 EG G/2[A/2G/2-]G|FF/2[G/2F/2-] FE E/2[F/2E/2-]E D2|
FA A/2[B/2A/2-]A GG/2[A/2G/2-] GF|F/2[G/2F/2-]F E2 EG G/2[A/2G/2-]G|FF/2[G/2F/2-] FE E/2[F/2E/2-]E DA|B/2-[c/2-B/2]c/2A/2- [A/2-A/2]A/2G EG FD|
C4 


